X:1
T:Aus tiefer Not (mel. 2, 3vv-2, LXXXI)
T:Michael Praetorius
T:Aus tiefer Not (mel. 2, 3vv-2, LXXXI)
C:Michael Praetorius
%%score [ 1 2 3 ]
L:1/8
Q:1/4=100
M:4/2
K:Bb
V:1 treble nm="Soprano 1" snm="S 1"
V:2 treble nm="Soprano 2" snm="S 2"
V:3 bass nm="Bass" snm="B"
V:1
 d4 c2 B2 G4 A4 | G2 G2 ^F8 G4 | B2 e2 d2 cB c2 B2 A4 | B2 f2 d3 c B2 f2 d4 | %4
w: Aus tie- fer Not schrei|ich zu dir, Herr|Gott, er- hör _ _ _ mein Ru-|fen, Herr Gott, er- hör, Herr Gott,|
w: Dein gnä- dig Ohr neig|her zu mir, und|mei- ner Bitt _ _ _ sie öf-|fen, und mei- ner Bitt, und mei-|
 c2 B4 AB c2 e2 d2 c2 | B2 AG A2 B4 A2 G4 | c4 B8 A4 |1 B16 :|1 B4 z2 B2 c2 e2 d3 B || %9
w: er- hör, _ _ _ Herr Gott, er-|hör, _ _ _ Herr Gott, er-|hör mein Ru-|fen.|fen. Denn so du willt das|
w: ner Bitt, _ _ _ und mei- ner|Bitt, _ _ _ und mei- ner|Bitt sie öf-|fen.|fen. * * * * *|
 e2 c2 B4 z4 B4 | c2 e2 d3 B c2 A2 G4 | z2 A2 F2 F2 c4 d4 | e6 d2 c4 c4 | B4 z2 f2 d2 e2 c2 B2 | %14
w: se- hen an, denn|so du willt das se- hen an,|was Sünd und Un- recht|ist _ _ ge-|tan, wer kann, Herr, für _|
w: |||||
 A4 B4 A2 B2 c2 d2 | e4 c2 d2 e4 f4 | g4 f8 =e4 | f4 z2 c2 B4 B4 | c4 d2 f2 d4 e4 | %19
w: _ dir blei- * * *|* ben, wer kann, Herr,|für dir blei-|ben, wer kann, Herr,|für dir, wer kann, Herr,|
w: |||||
 c4 B4 A2 B2 c2 d2 | A4 B6 AG A4 | B16 |] %22
w: für _ _ _ _ dir|blei- * * * *|ben?|
w: |||
V:2
 B4 A2 B2 c4 c4 | B2 c2 d8 e4 | d2 c2 B2 AG A2 B2 c4 | B4 z2 f2 d3 c B4 | z2 e2 d2 c2 A2 B4 A2 | %5
w: Aus tie- fer Not schrei|ich zu dir, Herr|Gott, er- hör _ _ _ mein Ru-|fen, Herr Gott, er- hör,|Herr Gott, er- hör mein Ru-|
w: Dein gnä- dig Ohr neig|her zu mir, und|mei- ner Bitt _ _ _ sie öf-|* und mei- ner Bitt,|und mei- ner Bitt sie öf-|
 B2 e2 d4 c4 B2 AG | A4 B4 c8 |1 d16 :|1 d8 z4 B4 || c2 e2 d3 B c2 A2 G3 F | %10
w: fen, Herr Gott, er- hör _ _|_ mein Ru-|fen.|fen. Denn|so du willt das se- hen an, denn|
w: fen, und mei- ner Bitt _ _|_ sie öf-|fen.|fen. *||
 F2 E2 F2 G2 AG F4 =E2 | F4 z2 A2 F4 F4 | G2 A2 B8 A4 | F2 G2 A2 B2 F2 G2 F4 | %14
w: so du willt das se- * * hen|an, was Sünd und|Un- recht ist ge-|tan, wer kann, Herr, für dir blei-|
w: ||||
 F2 f2 d2 e2 c2 B2 A2 B2 | c4 F3 F B4 A4 | c4 A4 B8 | A4 z2 A2 F4 G4 | A4 B4 F4 G4 | %19
w: ben, wer kann, Herr, für _ _ dir|blei- ben, wer kann, Herr,|für dir blei-|ben, wer kann, Herr,|für dir blei- *|
w: |||||
 F2 f2 d3 e c2 B2 A2 B2 | c4 d4 c8 | d16 |] %22
w: ben, wer kann, Herr, für _ _ dir|blei- * *|ben?|
w: |||
V:3
 B,4 F,2 G,2 C,4 F,4 | G,2 E,2 D,8 C,4 | G,2 C2 G,4 F,2 G,2 F,4 | B,8 z4 z2 B,2 | %4
w: Aus tie- fer Not schrei|ich zu dir, Herr|Gott, er- hör _ mein Ru-|fen, Herr|
w: Dein gnä- dig Ohr neig|her zu mir, und|mei- ner Bitt _ sie öf-|fen, und|
 A,2 G,2 F,6 E,2 F,4 | G,2 C,2 F,8 G,4 | F,4 D,4 E,4 F,4 |1 B,,16 :|1 B,,8 z8 || z8 F,4 G,2 B,2 | %10
w: Gott, er- hör mein Ru-|fen, Herr Gott, er-|hör mein Ru- *|fen.|fen.|Denn so du|
w: mei- ner Bitt sie öf-|fen, und mei- ner|Bitt sie öf- *|fen.|fen.||
 A,2 C2 B,2 G,2 F,4 z2 C2 | F,4 F,4 A,4 B,4 | E,4 E,4 F,6 F,2 | D,2 E,2 C,2 B,,2 B,2 A,G, A,2 B,2 | %14
w: willt das se- hen an, was|Sünd und Un- recht|ist ge- tan, wer|kann, Herr, für dir blei- * * * ben,|
w: ||||
 F,4 G,4 F,8 | z2 C2 A,2 B,2 G,4 F,4 | =E,4 F,4 G,8 | F,4 z2 F,2 D,4 E,4 | C,4 B,,8 E,4 | %19
w: wer kann, Herr,|wer kann, Herr, für _|_ dir blei-|ben, wer kann, Herr,|für dir, wer|
w: |||||
 F,4 B,4 F,4 F,4 | F,16 | B,,16 |] %22
w: kann, Herr, für dir|blei-|ben?|
w: |||

